X:1
T:Title
%%score { 1 | 2 }
L:1/8
M:4/4
K:Bb
V:1 treble nm="Grand Piano"
V:2 bass 
V:1
 z4 z2[Q:1/4=100] [DF]2 | [Fd]2 [Fc]>[FB] [GB]2 [FA]>[EG] | [DF]6 [DF]2 | F2 E>D E2 A>G | %4
 [DF]6 [DF]2 | [DF]2 [Fd]>[Fc] [DB]2 [DFB]>[DFB] | [DFB]2 [CFc]>[_Ad] [Ge]3 [Ge] | d2 c>B A2 F>c | %8
 [DB]6 z2 | c2 c>c c4 | d2 d>d d4 | [=EG]2 [EG][EG] [Ec][Ec] [GB]2 | A6 G>F | [DF]2 [FB]>c d2 cB | %14
 B2 cd [Ge]3 [Ge] | d2 c>B A2 F>c | [DB]6 z2 |] %17
V:2
 z4 z2 [B,,B,]2 | [B,,B,]2 [C,A,]>[D,B,] [E,B,]2 [E,B,]>[E,B,] | [B,,B,]6 [B,,B,]2 | %3
 [F,A,C]2 [F,C]>[F,=B,] [F,C]2 [F,CF]>[F,A,E] | [B,,B,]6 [B,,B,]2 | %5
 [B,,B,]2 [B,,B,]>[B,,F,] [B,,F,]2 B,,>B,, | B,2 A,>B, [E,B,]3 [E,B,] | %7
 [F,B,F]2 [F,EF]>[F,DF] [F,CF]2 [F,A,E]>[F,A,E] | [B,,B,]6 z2 | [F,A,F]2 [F,A,F]>[F,A,F] [F,A,F]4 | %10
 [B,F]2 [B,F]>[B,F] [B,F]4 | [C,C]2 [C,C][C,C] [C,G,][C,G,] [C,C]2 | [F,CF]6 [F,B,E]>[F,A,E] | %13
 [B,,B,]2 [D,B,]>[K:treble][F,A,F] [B,F]2 [B,EF][B,DF] | %14
 [B,DF]2 [A,CF][B,_A][K:bass] [E,B,]3 [E,B,] | [F,B,F]2 [F,EF]>[F,DF] [F,CF]2 [F,A,E]>[F,A,E] | %16
 [B,,B,]6 z2 |] %17

